Safari/img/services/03.svg

<svg width="45" height="45" viewBox="0 0 45 45" fill="none" xmlns="http://www.w3.org/2000/svg">
<path d="M42 43.5001V15.0001C42 14.6558 41.7656 14.3559 41.4316 14.2724L27 10.6641V6.75008C27 6.41024 26.7715 6.11324 26.4434 6.02535L3.94336 0.0253486C3.71851 -0.03471 3.47791 0.0132636 3.29333 0.155353C3.1084 0.297077 3 0.516804 3 0.75008V43.5001H0V45.0001H45V43.5001H42ZM4.5 1.72493L25.5 7.3243V43.5001H21.75V35.2501C21.75 34.8359 21.4142 34.5001 21 34.5001H9C8.58582 34.5001 8.25 34.8359 8.25 35.2501V43.5001H4.5V1.72493ZM9.75 36.0001H14.25V43.5001H9.75V36.0001ZM15.75 43.5001V36.0001H20.25V43.5001H15.75ZM31.5 43.5001V37.5001H36V43.5001H31.5ZM37.5 43.5001V36.7501C37.5 36.3359 37.1642 36.0001 36.75 36.0001H30.75C30.3358 36.0001 30 36.3359 30 36.7501V43.5001H27V12.2107L40.5 15.5857V43.5001H37.5Z" fill="white"/>
<path d="M9.75 31.5009H12.75C13.1642 31.5009 13.5 31.165 13.5 30.7509V27.7509C13.5 27.3367 13.1642 27.0009 12.75 27.0009H9.75C9.33582 27.0009 9 27.3367 9 27.7509V30.7509C9 31.165 9.33582 31.5009 9.75 31.5009ZM10.5 28.5009H12V30.0009H10.5V28.5009Z" fill="white"/>
<path d="M17.25 31.5009H20.25C20.6642 31.5009 21 31.165 21 30.7509V27.7509C21 27.3367 20.6642 27.0009 20.25 27.0009H17.25C16.8358 27.0009 16.5 27.3367 16.5 27.7509V30.7509C16.5 31.165 16.8358 31.5009 17.25 31.5009ZM18 28.5009H19.5V30.0009H18V28.5009Z" fill="white"/>
<path d="M32.25 28.5009H29.25C28.8358 28.5009 28.5 28.8367 28.5 29.2509V32.2509C28.5 32.665 28.8358 33.0009 29.25 33.0009H32.25C32.6642 33.0009 33 32.665 33 32.2509V29.2509C33 28.8367 32.6642 28.5009 32.25 28.5009ZM31.5 31.5009H30V30.0009H31.5V31.5009Z" fill="white"/>
<path d="M38.25 28.5009H35.25C34.8358 28.5009 34.5 28.8367 34.5 29.2509V32.2509C34.5 32.665 34.8358 33.0009 35.25 33.0009H38.25C38.6642 33.0009 39 32.665 39 32.2509V29.2509C39 28.8367 38.6642 28.5009 38.25 28.5009ZM37.5 31.5009H36V30.0009H37.5V31.5009Z" fill="white"/>
<path d="M32.25 22.5009H29.25C28.8358 22.5009 28.5 22.8367 28.5 23.2509V26.2509C28.5 26.665 28.8358 27.0009 29.25 27.0009H32.25C32.6642 27.0009 33 26.665 33 26.2509V23.2509C33 22.8367 32.6642 22.5009 32.25 22.5009ZM31.5 25.5009H30V24.0009H31.5V25.5009Z" fill="white"/>
<path d="M38.25 22.5009H35.25C34.8358 22.5009 34.5 22.8367 34.5 23.2509V26.2509C34.5 26.665 34.8358 27.0009 35.25 27.0009H38.25C38.6642 27.0009 39 26.665 39 26.2509V23.2509C39 22.8367 38.6642 22.5009 38.25 22.5009ZM37.5 25.5009H36V24.0009H37.5V25.5009Z" fill="white"/>
<path d="M32.25 16.5009H29.25C28.8358 16.5009 28.5 16.8367 28.5 17.2509V20.2508C28.5 20.665 28.8358 21.0008 29.25 21.0008H32.25C32.6642 21.0008 33 20.665 33 20.2508V17.2509C33 16.8367 32.6642 16.5009 32.25 16.5009ZM31.5 19.5009H30V18.0009H31.5V19.5009Z" fill="white"/>
<path d="M38.25 16.5009H35.25C34.8358 16.5009 34.5 16.8367 34.5 17.2509V20.2508C34.5 20.665 34.8358 21.0008 35.25 21.0008H38.25C38.6642 21.0008 39 20.665 39 20.2508V17.2509C39 16.8367 38.6642 16.5009 38.25 16.5009ZM37.5 19.5009H36V18.0009H37.5V19.5009Z" fill="white"/>
<path d="M9.75 25.5009H12.75C13.1642 25.5009 13.5 25.165 13.5 24.7509V21.7509C13.5 21.3367 13.1642 21.0009 12.75 21.0009H9.75C9.33582 21.0009 9 21.3367 9 21.7509V24.7509C9 25.165 9.33582 25.5009 9.75 25.5009ZM10.5 22.5009H12V24.0009H10.5V22.5009Z" fill="white"/>
<path d="M17.25 25.5009H20.25C20.6642 25.5009 21 25.165 21 24.7509V21.7509C21 21.3367 20.6642 21.0009 20.25 21.0009H17.25C16.8358 21.0009 16.5 21.3367 16.5 21.7509V24.7509C16.5 25.165 16.8358 25.5009 17.25 25.5009ZM18 22.5009H19.5V24.0009H18V22.5009Z" fill="white"/>
<path d="M9.75 19.5009H12.75C13.1642 19.5009 13.5 19.165 13.5 18.7509V15.7509C13.5 15.3367 13.1642 15.0009 12.75 15.0009H9.75C9.33582 15.0009 9 15.3367 9 15.7509V18.7509C9 19.165 9.33582 19.5009 9.75 19.5009ZM10.5 16.5009H12V18.0009H10.5V16.5009Z" fill="white"/>
<path d="M17.25 19.5009H20.25C20.6642 19.5009 21 19.165 21 18.7509V15.7509C21 15.3367 20.6642 15.0009 20.25 15.0009H17.25C16.8358 15.0009 16.5 15.3367 16.5 15.7509V18.7509C16.5 19.165 16.8358 19.5009 17.25 19.5009ZM18 16.5009H19.5V18.0009H18V16.5009Z" fill="white"/>
<path d="M9.75 13.5009H12.75C13.1642 13.5009 13.5 13.165 13.5 12.7509V9.75085C13.5 9.33667 13.1642 9.00085 12.75 9.00085H9.75C9.33582 9.00085 9 9.33667 9 9.75085V12.7509C9 13.165 9.33582 13.5009 9.75 13.5009ZM10.5 10.5009H12V12.0009H10.5V10.5009Z" fill="white"/>
<path d="M17.25 13.5009H20.25C20.6642 13.5009 21 13.165 21 12.7509V9.75085C21 9.33667 20.6642 9.00085 20.25 9.00085H17.25C16.8358 9.00085 16.5 9.33667 16.5 9.75085V12.7509C16.5 13.165 16.8358 13.5009 17.25 13.5009ZM18 10.5009H19.5V12.0009H18V10.5009Z" fill="white"/>
</svg>

<svg width="45" height="45" fill="none" xmlns="http://www.w3.org/2000/svg"><path d="M42 43.5V15a.75.75 0 00-.568-.728L27 10.664V6.75a.75.75 0 00-.557-.725l-22.5-6A.75.75 0 003 .75V43.5H0V45h45v-1.5h-3zM4.5 1.725l21 5.6V43.5h-3.75v-8.25a.75.75 0 00-.75-.75H9a.75.75 0 00-.75.75v8.25H4.5V1.725zM9.75 36h4.5v7.5h-4.5V36zm6 7.5V36h4.5v7.5h-4.5zm15.75 0v-6H36v6h-4.5zm6 0v-6.75a.75.75 0 00-.75-.75h-6a.75.75 0 00-.75.75v6.75h-3V12.21l13.5 3.376V43.5h-3z" fill="#fff"/><path d="M9.75 31.5h3a.75.75 0 00.75-.75v-3a.75.75 0 00-.75-.75h-3a.75.75 0 00-.75.75v3c0 .415.336.75.75.75zm.75-3H12V30h-1.5v-1.5zm6.75 3h3a.75.75 0 00.75-.75v-3a.75.75 0 00-.75-.75h-3a.75.75 0 00-.75.75v3c0 .415.336.75.75.75zm.75-3h1.5V30H18v-1.5zm14.25 0h-3a.75.75 0 00-.75.75v3c0 .415.336.75.75.75h3a.75.75 0 00.75-.75v-3a.75.75 0 00-.75-.75zm-.75 3H30V30h1.5v1.5zm6.75-3h-3a.75.75 0 00-.75.75v3c0 .415.336.75.75.75h3a.75.75 0 00.75-.75v-3a.75.75 0 00-.75-.75zm-.75 3H36V30h1.5v1.5zm-5.25-9h-3a.75.75 0 00-.75.75v3c0 .415.336.75.75.75h3a.75.75 0 00.75-.75v-3a.75.75 0 00-.75-.75zm-.75 3H30V24h1.5v1.5zm6.75-3h-3a.75.75 0 00-.75.75v3c0 .415.336.75.75.75h3a.75.75 0 00.75-.75v-3a.75.75 0 00-.75-.75zm-.75 3H36V24h1.5v1.5zm-5.25-9h-3a.75.75 0 00-.75.75v3c0 .415.336.75.75.75h3a.75.75 0 00.75-.75v-3a.75.75 0 00-.75-.75zm-.75 3H30V18h1.5v1.5zm6.75-3h-3a.75.75 0 00-.75.75v3c0 .415.336.75.75.75h3a.75.75 0 00.75-.75v-3a.75.75 0 00-.75-.75zm-.75 3H36V18h1.5v1.5zm-27.75 6h3a.75.75 0 00.75-.75v-3a.75.75 0 00-.75-.75h-3a.75.75 0 00-.75.75v3c0 .415.336.75.75.75zm.75-3H12V24h-1.5v-1.5zm6.75 3h3a.75.75 0 00.75-.75v-3a.75.75 0 00-.75-.75h-3a.75.75 0 00-.75.75v3c0 .415.336.75.75.75zm.75-3h1.5V24H18v-1.5zm-8.25-3h3a.75.75 0 00.75-.75v-3a.75.75 0 00-.75-.75h-3a.75.75 0 00-.75.75v3c0 .415.336.75.75.75zm.75-3H12V18h-1.5v-1.5zm6.75 3h3a.75.75 0 00.75-.75v-3a.75.75 0 00-.75-.75h-3a.75.75 0 00-.75.75v3c0 .415.336.75.75.75zm.75-3h1.5V18H18v-1.5zm-8.25-3h3a.75.75 0 00.75-.75v-3a.75.75 0 00-.75-.75h-3a.75.75 0 00-.75.75v3c0 .415.336.75.75.75zm.75-3H12V12h-1.5v-1.5zm6.75 3h3a.75.75 0 00.75-.75v-3a.75.75 0 00-.75-.75h-3a.75.75 0 00-.75.75v3c0 .415.336.75.75.75zm.75-3h1.5V12H18v-1.5z" fill="#fff"/></svg>
